svg/regular/bx-laugh.svg

<svg xmlns="http://www.w3.org/2000/svg" width="24" height="24"><path d="M12 2C6.486 2 2 6.486 2 12s4.486 10 10 10 10-4.486 10-10S17.514 2 12 2zm0 18c-4.411 0-8-3.589-8-8s3.589-8 8-8 8 3.589 8 8-3.589 8-8 8z"/><path d="M12 18c4 0 5-4 5-4H7s1 4 5 4zm5.555-9.168-1.109-1.664-3 2a1.001 1.001 0 0 0 .108 1.727l4 2 .895-1.789-2.459-1.229 1.565-1.045zm-6.557 1.23a1 1 0 0 0-.443-.894l-3-2-1.11 1.664 1.566 1.044-2.459 1.229.895 1.789 4-2a.998.998 0 0 0 .551-.832z"/></svg>

<svg xmlns="http://www.w3.org/2000/svg" width="24" height="24" viewBox="0 0 24 24"><path d="M12,2C6.486,2,2,6.486,2,12c0,5.514,4.486,10,10,10s10-4.486,10-10C22,6.486,17.514,2,12,2z M12,20c-4.411,0-8-3.589-8-8 s3.589-8,8-8s8,3.589,8,8S16.411,20,12,20z"/><path d="M12 18c4 0 5-4 5-4H7C7 14 8 18 12 18zM17.555 8.832l-1.109-1.664-3 2c-.297.198-.466.539-.443.894.022.356.232.673.551.833l4 2 .895-1.789-2.459-1.229L17.555 8.832zM10.998 10.062c.022-.355-.146-.696-.443-.894l-3-2L6.445 8.832l1.566 1.044-2.459 1.229.895 1.789 4-2C10.766 10.735 10.976 10.418 10.998 10.062z"/></svg>
